X: 24980
T: Maid Of Mount Kisco, The
R: reel
M: 4/4
K: Adorian
EA~A2 BA~A2|EA~A2 BGAG|EG~G2 AG~G2|EG~G2 GEDG|
EA~A2 BAAG|EA~A2 BABd|eg~g2 agge|1 dBGB ~A3G:|2 dBGB A2dB||
|:~A3B dBAB|G2BG DGBG|~A3B d2Bd|1 e~g3 gedB:|2 edge d2 Bd||
|:ea~a2 bgag|gedB GABd|ea~a2 bgag|gede g2eg|
~a3e~g3e|dedB GABd|eA~A2 egge|1 dBGB A2 Bd:|2 dBGB ~A3G||

